X: 22311
T: La Russe
R: polka
M: 2/4
K: Gmajor
M:4/4
D2|:G2 BB B2 dd|d2 g2 g2 fg|a2 g2 e2 c2|e2 d2 dcBA|
G2 B/B/B B2 d/d/d|d2 g2 g2 fg|e2 d2 d2 FB|1 A2 G2 G2 D/E/F:|2 A2 G2 G3||
K: Dmaj
|:B|A2 d2 d3 B|A2 a2 a3 f|g2 f2 g2 e2|fgag f2 d2|
A2 d/d/d d2 cB|A2 aa a2 f2|g2 f2 g2 e2|1 d4 d3 B:|2 d2 de dcBA||

